svg/star_large_outline.svg

<?xml version="1.0" encoding="UTF-8" standalone="no"?>
<!-- Created with Inkscape (http://www.inkscape.org/) -->
<svg id="svg8" xmlns:rdf="http://www.w3.org/1999/02/22-rdf-syntax-ns#" xmlns="http://www.w3.org/2000/svg" xmlns:osb="http://www.openswatchbook.org/uri/2009/osb" height="48" width="48" version="1.1" xmlns:cc="http://creativecommons.org/ns#" viewBox="0 0 12.7 12.7" xmlns:dc="http://purl.org/dc/elements/1.1/">
 <title id="title4753">UIO-icon</title>
 <metadata id="metadata5">
  <rdf:RDF>
   <cc:Work rdf:about="">
    <dc:format>image/svg+xml</dc:format>
    <dc:type rdf:resource="http://purl.org/dc/dcmitype/StillImage"/>
    <dc:title>UIO-icon</dc:title>
    <dc:creator>
     <cc:Agent>
      <dc:title>Joaquín Urbano</dc:title>
     </cc:Agent>
    </dc:creator>
    <dc:rights>
     <cc:Agent>
      <dc:title>GPL</dc:title>
     </cc:Agent>
    </dc:rights>
   </cc:Work>
  </rdf:RDF>
 </metadata>
 <g id="layer1" transform="translate(0,-284.3)" fill="#333">
  <path id="path882" d="m24.031 4-6.207 13.145-13.824 2.078 9.979 10.265-2.389 14.457 12.373-6.8 12.348 6.855-2.332-14.467 10.021-10.221-13.814-2.14zm-0.001953 1.2012 5.8184 12.457 13.064 2.0234-9.4766 9.6641 2.2051 13.68l-11.674-6.482-11.701 6.432 2.259-13.672-9.4351-9.705 13.07-1.967z" fill-rule="evenodd" transform="matrix(.26458 0 0 .26458 0 284.3)"/>
 </g>
</svg>

<svg width="48" height="48" viewBox="0 0 48 48" fill="none" xmlns="http://www.w3.org/2000/svg">
<path fill-rule="evenodd" clip-rule="evenodd" d="M24.0307 4L17.8238 17.1448L4 19.2228L13.9789 29.4877L11.5899 43.9445L23.9627 37.1446L36.3106 43.9995L33.9786 29.5327L43.9995 19.3118L30.1857 17.1718L24.0307 4ZM24.0288 5.20118L29.8471 17.658L42.911 19.6814L33.4345 29.3454L35.6396 43.0252L23.9657 36.5433L12.2648 42.9752L14.5238 29.3034L5.08883 19.5985L18.1587 17.6315L24.0288 5.20118Z" fill="#333333"/>
</svg>
